packages/components/src/components/icon/common/ic-ewallet.svg

<svg width="58" height="48" viewBox="0 0 58 48" fill="none" xmlns="http://www.w3.org/2000/svg">
<path d="M58 21.4451C57.782 21.4451 57.3459 21.4451 57.1278 21.4451C51.2406 21.4451 45.5714 21.4451 39.6842 21.4451C36.8496 21.4451 35.1053 23.1715 35.1053 25.7611C35.1053 27.7033 35.1053 29.4296 35.1053 31.3718C35.1053 33.9614 36.8496 35.6878 39.4662 35.6878C45.3534 35.6878 51.2406 35.6878 56.9098 35.6878C57.1278 35.6878 57.3459 35.6878 57.782 35.6878C57.782 35.9036 57.782 36.1194 57.782 36.1194C57.782 38.0616 57.782 39.788 57.782 41.7302C57.782 45.1829 55.1654 47.9883 51.4586 47.9883C36.4135 47.9883 21.1504 47.9883 6.10526 47.9883C2.61654 48.2041 0 45.3987 0 41.946C0 33.0982 0 24.2505 0 15.4027C0 12.3816 2.18045 9.79198 5.23308 9.36039C7.41353 8.92879 9.37594 8.28139 11.3383 7.8498C20.7143 5.47601 30.0902 2.88643 39.4662 0.296848C43.1729 -0.782145 46.4436 1.16004 47.3158 4.82862C47.7519 6.12341 47.9699 7.4182 48.406 8.49719C48.6241 8.92879 48.8421 9.14459 49.2782 9.14459C50.3684 9.14459 51.6767 9.14459 52.7669 9.36039C55.6015 9.79198 57.782 12.1658 57.782 14.9711C57.782 15.1869 57.782 15.6185 57.782 15.8343C58 17.7765 58 19.7187 58 21.4451ZM44.4812 9.14459C44.2632 8.06559 43.8271 6.9866 43.609 5.90761C43.1729 4.39702 42.3008 3.74962 40.5564 4.18122C35.9774 5.47601 31.6165 6.55501 27.0376 7.8498C25.5113 8.28139 23.985 8.71299 22.4586 9.14459C29.6541 9.14459 37.0677 9.14459 44.4812 9.14459Z" fill="#84ABAE"/>
<path d="M39.2482 31.8033C39.2482 29.8612 39.2482 27.7032 39.2482 25.761C45.3534 25.761 51.6767 25.761 57.782 25.761C57.782 27.7032 57.782 29.8612 57.782 31.8033C51.6767 31.8033 45.5715 31.8033 39.2482 31.8033Z" fill="#E0F0F0"/>
</svg>

<svg width="58" height="48" fill="none" xmlns="http://www.w3.org/2000/svg"><path d="M58 21.445H39.684c-2.834 0-4.579 1.727-4.579 4.316v5.61c0 2.59 1.745 4.317 4.361 4.317h18.316v6.042c0 3.453-2.617 6.258-6.323 6.258H6.105C2.617 48.204 0 45.398 0 41.946V15.403c0-3.021 2.18-5.611 5.233-6.043 2.18-.431 4.143-1.079 6.105-1.51C20.714 5.476 30.09 2.886 39.466.297c3.707-1.08 6.978.863 7.85 4.532.436 1.294.654 2.59 1.09 3.668.218.432.436.648.872.648 1.09 0 2.399 0 3.489.215 2.834.432 5.015 2.806 5.015 5.611v.863C58 17.776 58 19.72 58 21.445Zm-13.519-12.3c-.218-1.08-.654-2.158-.872-3.237-.436-1.511-1.308-2.158-3.053-1.727-4.579 1.295-8.94 2.374-13.518 3.669l-4.58 1.295h22.023Z" fill="#84ABAE"/><path d="M39.248 31.803v-6.042h18.534v6.042H39.248Z" fill="#E0F0F0"/></svg>
